X: 23
T:  Vivam os ps
C: singer - Bando dos Gambozinos
C: lyrics - Manuel Antnio Pina
C: music - Suzana Ralha
D:  "o beco dos gambozinos"
S:  jj
M: 3/4
K: F
L: 1/4
cGc| d2 c/2=B/2 | c G A | B2 A | G A B | G A B |G G F |1 G2 z :|2 G2 G |: F F
E| D2  D| CD  E |1 D D G:|2 D2 B | A G F | G A  B | A G F | G A  B | B/2c/2 c B
| A G F | F2 F | D3 |]
W: Vivam os ps
W: que com psinhos de l
W: se pem a p 
W: logo pela manh
W: 
W: Os ps que vo 
W: a p para a escola
W: que pulam que bulem
W: que jogam  bola
W: 
W: Que voltam pra casa
W: que vo aos recados
W: que  noite vo para cama
W: to cansados
W: 
W: Vivam os ps
W: que com psinhos de l
W: j adormeceram
W: e at amanh
W:
